X:1033
T:"The Monaghan Jig"              1033
C:after Mr. Gillan
N:Whats the difference between a "shake" (mordent) and a Trill
B:O'Neill's Music Of Ireland (The 1850) Lyon & Healy, Chicago, 1903 edition
Z:FROM O'NEILL'S TO NOTEWORTHY, FROM NOTEWORTHY TO ABC, MIDI AND .TXT BY VINCE
BRENNAN July 2003 (HTTP://WWW.SOSYOURMOM.COM)
I:abc2nwc
M:6/8
L:1/8
K:G
BGE TRF2E|BGE FGA|BGE TRF2E|AFD FGA|
BGE TRF2E|BGE FGA|dcB ABG|(FD)F AGF:|
EGB efg|"^shake"fed edB|EGB dBG|"^shake"FDF AGF|
EGB efg|fed edB|dcB ABG|("^shake"FD)F AGF:|
TRg2e efe|geg bge| TRg2e efg|fdf agf|
TRg2e efe|geg bge|dcB ABA|("^shake"FD)F AGF:|
